X: 1
T: Out On The Ocean
R: jig
M: 6/8
L: 1/8
K: Gmaj
|:GE|D2B BAG|BdB A2B|GED G2A|B2B AGE|D2B BAG|BdB A2B|GED G2A|BGE G:|Bd|e2e edB|ege edB|d2B def|gfe dBA|G2A B2d|ege d2B|AGE G2A|BGE G:|


Tune 108	Setting 12682

